X: 1380
T: Muhayyer Seyir
C: Rauf Yektâ
O: Turkey
F: http://compmusic.upf.edu/node/140
N: muhayyer--seyir--semai--1--rauf_yekta
N: makam= muhayyer
N: form= seyir
N: usul= semai = 3/4
M: 3/4
L: 1/16
K: C _2/4B ^3/4f  
Q: 1/4=120
%%MIDI tuningsystem comma53
g8 a4  | a8 b4  | a8 g4  | f4 e8  | d4 e4 f4  | \
w:   |   |   |   |   | 
g4 a4 b4  | a4 g4 f4  | g4 a8  | g8 g4  | 
w:   |   |   |   | 
c'12  | c'8 b4  | b4 a4 g4  | a4 b4 d'4  | \
w:   |   |   |   | 
c'8 b4  | c'4 b4 a4  | a8 z4  | g4 a4 a4  | \
w:   |   |   |   | 
a4 b4 a4  | 
w:   | 
a4 g4 =f4  | e4 d8  | z4 e4 =f4  | g4 =f4 e4  | \
w:   |   |   |   | 
d4 c4 B4  | c8 z4  | d8 e4  | f4 g4 a4  | 
w:   |   |   |   | 
g4 =f4 e4  | d4 e8  | c4 d4 d4  | d4 e4 d4  | \
w:   |   |   |   | 
c8 B4  | A8 z4  | |


